cursors/src/svg/crosshair.svg

<?xml version="1.0" encoding="UTF-8" standalone="no"?>
<svg
   xmlns:dc="http://purl.org/dc/elements/1.1/"
   xmlns:cc="http://creativecommons.org/ns#"
   xmlns:rdf="http://www.w3.org/1999/02/22-rdf-syntax-ns#"
   xmlns:svg="http://www.w3.org/2000/svg"
   xmlns="http://www.w3.org/2000/svg"
   xmlns:sodipodi="http://sodipodi.sourceforge.net/DTD/sodipodi-0.dtd"
   xmlns:inkscape="http://www.inkscape.org/namespaces/inkscape"
   width="32"
   height="32"
   version="1.1"
   viewBox="0 0 32 32"
   id="svg17"
   sodipodi:docname="crosshair.svg"
   inkscape:version="0.92.4 5da689c313, 2019-01-14">
  <metadata
     id="metadata21">
    <rdf:RDF>
      <cc:Work
         rdf:about="">
        <dc:format>image/svg+xml</dc:format>
        <dc:type
           rdf:resource="http://purl.org/dc/dcmitype/StillImage" />
      </cc:Work>
    </rdf:RDF>
  </metadata>
  <sodipodi:namedview
     pagecolor="#ffffff"
     bordercolor="#666666"
     borderopacity="1"
     objecttolerance="10"
     gridtolerance="10"
     guidetolerance="10"
     inkscape:pageopacity="0"
     inkscape:pageshadow="2"
     inkscape:window-width="1366"
     inkscape:window-height="696"
     id="namedview19"
     showgrid="false"
     inkscape:zoom="10.429825"
     inkscape:cx="4.2684643"
     inkscape:cy="16"
     inkscape:window-x="0"
     inkscape:window-y="36"
     inkscape:window-maximized="1"
     inkscape:current-layer="svg17" />
  <defs
     id="defs5">
    <filter
       id="a"
       x="-.12"
       y="-.12"
       width="1.24"
       height="1.24"
       color-interpolation-filters="sRGB">
      <feGaussianBlur
         stdDeviation="0.9"
         id="feGaussianBlur2" />
    </filter>
  </defs>
  <g
     transform="translate(0 -1020.4)"
     id="g15">
    <g
       transform="translate(-.036172 -1.5422)"
       id="g13">
      <path
         d="m16.036 1028.9a1.0001 1.0001 0 0 0-1 1v7h-7a1.0001 1.0001 0 0 0-1 1v2a1.0001 1.0001 0 0 0 1 1h7v7a1.0001 1.0001 0 0 0 1 1h2a1.0001 1.0001 0 0 0 1-1v-7h7a1.0001 1.0001 0 0 0 1-1v-2a1.0001 1.0001 0 0 0-1-1h-7v-7a1.0001 1.0001 0 0 0-1-1zm1 9a1.0001 1.0001 0 0 0 1 1 1.0001 1.0001 0 0 0-1 1 1.0001 1.0001 0 0 0-1-1 1.0001 1.0001 0 0 0 1-1z"
         color="#000000"
         color-rendering="auto"
         dominant-baseline="auto"
         filter="url(#a)"
         image-rendering="auto"
         opacity=".35"
         shape-rendering="auto"
         solid-color="#000000"
         style="font-feature-settings:normal;font-variant-alternates:normal;font-variant-caps:normal;font-variant-ligatures:normal;font-variant-numeric:normal;font-variant-position:normal;isolation:auto;mix-blend-mode:normal;shape-padding:0;text-decoration-color:#000000;text-decoration-line:none;text-decoration-style:solid;text-indent:0;text-orientation:mixed;text-transform:none;white-space:normal"
         id="path7" />
      <path
         d="m15.036 1028.9v8h-8v2h8v8h2v-8h8v-2h-8v-8z"
         fill="none"
         stroke="#fff"
         stroke-linecap="round"
         stroke-linejoin="round"
         stroke-width="2"
         id="path9" />
      <path
         d="m15.036 1028.9v8h-8v2h8v8h2v-8h8v-2h-8v-8z"
         id="path11"
         style="fill:#282A33" />
    </g>
  </g>
</svg>

<?xml version="1.0" encoding="UTF-8" standalone="no"?>
<!DOCTYPE svg PUBLIC "-//W3C//DTD SVG 1.1//EN" "http://www.w3.org/Graphics/SVG/1.1/DTD/svg11.dtd">
<svg width="100%" height="100%" viewBox="0 0 32 32" version="1.1" xmlns="http://www.w3.org/2000/svg" xmlns:xlink="http://www.w3.org/1999/xlink" xml:space="preserve" xmlns:serif="http://www.serif.com/" style="fill-rule:evenodd;clip-rule:evenodd;stroke-linecap:round;stroke-linejoin:round;">
    <g id="g13" transform="matrix(1,0,0,1,-0.036172,-1021.94)">
        <g id="g15">
            <g id="g131" serif:id="g13">
                <g id="path7" transform="matrix(1,-0,-0,1,0.036172,1021.94)">
                    <use xlink:href="#_Image1" x="4.3" y="4.258" width="26px" height="26px"/>
                </g>
                <path id="path9" d="M15.036,1028.9L15.036,1036.9L7.036,1036.9L7.036,1038.9L15.036,1038.9L15.036,1046.9L17.036,1046.9L17.036,1038.9L25.036,1038.9L25.036,1036.9L17.036,1036.9L17.036,1028.9L15.036,1028.9Z" style="fill:none;fill-rule:nonzero;stroke:white;stroke-width:2px;"/>
                <path id="path11" d="M15.036,1028.9L15.036,1036.9L7.036,1036.9L7.036,1038.9L15.036,1038.9L15.036,1046.9L17.036,1046.9L17.036,1038.9L25.036,1038.9L25.036,1036.9L17.036,1036.9L17.036,1028.9L15.036,1028.9Z" style="fill-rule:nonzero;"/>
            </g>
        </g>
    </g>
    <defs>
        <image id="_Image1" width="26px" height="26px" xlink:href="data:image/png;base64,iVBORw0KGgoAAAANSUhEUgAAABoAAAAaCAYAAACpSkzOAAAACXBIWXMAAA7EAAAOxAGVKw4bAAAB0ElEQVRIia2WaW/bMBBEn44mylH0///MoPARW5L7QTP2iPXBICFAUCCX+7i7Q9oNda1Rb2PuBMwaH7auEtICv4Bn4AnoNZ/Qb4MMeQHegTfBWr4QVf9gPaN5Bf4AAzABfzUeNX4LZFgvgCOy8y2wk83dqGpBjuqJpU6t9nasBXKzVRmxVl325t6mbNciaorvhtsOmzs2q1T2xYa22NSwpCzT5PVOvZfNHAD3syL7APThNB32LIp7DljHRfKjvhNgNY76nvtw9iKHgzY6qk6Qt5jvZD9pbiwgBxZFbj3v0+c9+c2irsz9tWgHAV9ZX9pRgFbQEZhcI8OGSJMVmWora9fpUJk2R7fXegM0Brlwzq0dE99dbET2rkEJynmcOi/ulBrnPZXowg+y8Yn3wGdE4dTtgQ1LrWa0aQ6Qn5U8uYUyRWS2/wiHKelRBzho3/l0kxaOXN6uFIIl7MLbfiPYJ+t7NIfdWXXOt4Hly+A3bgwHdnIQZB8gw3JcPUH/LQpkx6diLVPlfrPVPqrpuOxVrQaU0h8pnpZaWM3vUT4rO81Zwq7bj/xnSAWeuChzo/HIg/pAXUS+F1uWyHz3DsQ9qTltTbv2q7q6Jz8FumVbrbp/28/AQ4gboWoAAAAASUVORK5CYII="/>
    </defs>
</svg>
